usr/share/icons/biglinux-icons-material/24/actions/lines-connector.svg

<svg xmlns="http://www.w3.org/2000/svg" viewBox="0 0 24 24"><g transform="translate(1 1)">/&gt;<path d="M16 3v3h3V3h-3zm1 1h1v1h-1V4zM3 16v3h3v-3H3zm1 1h1v1H4v-1z" style="fill:currentColor;fill-opacity:1;stroke:none;color:#3daee9"/><path d="m13.941 4-6.5 13H6v1h2.059l6.5-13H16V4h-2.059z" style="fill:currentColor;fill-opacity:1;stroke:none;color:#dedede"/></g></svg>

<svg xmlns="http://www.w3.org/2000/svg" viewBox="0 0 24 24">
  <defs id="defs3051">
    <style type="text/css" id="current-color-scheme">
      .ColorScheme-Text {
        color:#dedede;
      }
      .ColorScheme-Highlight {
        color:#3daee9;
      }
      </style>
  </defs><g transform="translate(1,1)">
     />
    <path
       style="fill:currentColor;fill-opacity:1;stroke:none" 
       d="M 16 3 L 16 6 L 19 6 L 19 3 L 16 3 z M 17 4 L 18 4 L 18 5 L 17 5 L 17 4 z M 3 16 L 3 19 L 6 19 L 6 16 L 3 16 z M 4 17 L 5 17 L 5 18 L 4 18 L 4 17 z " 
        class="ColorScheme-Highlight"
        />
    <path
       style="fill:currentColor;fill-opacity:1;stroke:none" 
       d="M 13.941406 4 L 7.4414062 17 L 6 17 L 6 18 L 6.9414062 18 L 8 18 L 8.0585938 18 L 14.558594 5 L 16 5 L 16 4 L 15.058594 4 L 14 4 L 13.941406 4 z "
        class="ColorScheme-Text"
        />
</g></svg>
